Origami/22x22/apps/nip2.svg

<svg width="22" height="22" version="1" xmlns="http://www.w3.org/2000/svg">
 <path d="m2 2.5c-0.554 0-1 0.446-1 1v12 4c0 0.554 0.446 1 1 1h18c0.554 0 1-0.446 1-1v-4-12c0-0.554-0.446-1-1-1h-18z" style="opacity:.2"/>
 <path d="m2 2c-0.554 0-1 0.446-1 1v12 4c0 0.554 0.446 1 1 1h18c0.554 0 1-0.446 1-1v-4-12c0-0.554-0.446-1-1-1h-18z" style="fill:#cccccc"/>
 <rect x="3" y="4" width="16" height="14" style="fill:#494949"/>
 <path d="m3 10s1.5-1.5 3.5-1.5 2.561716 2.035882 4.5 2c1.938284-0.03588 3.5-4 5-4s3 1 3 1v10.5h-16z" style="opacity:.1"/>
 <path d="m16 7c-1.5 0-3.061716 3.96412-5 4-1.938284 0.035882-2.5-2-4.5-2s-3.5 1.5-3.5 1.5v7.5h16v-10s-1.5-1-3-1z" style="fill:#4966ff"/>
 <path d="m3 12.5s0.5 2 1.5 2 2.5-2 4.5-2 4 2 5.5 2 4.5-2 4.5-2v5.5h-16z" style="opacity:.1"/>
 <path d="m3 13v5h16v-5s-3 2-4.5 2-3.5-2-5.5-2-3.5 2-4.5 2-1.5-2-1.5-2z" style="fill:#19c171"/>
 <path d="m16 7c-1.5 0-3.061716 3.96412-5 4s-2.5-2-4.5-2-3.5 1.5-3.5 1.5v0.5s1.5-1.5 3.5-1.5 2.561716 2.035882 4.5 2c1.938284-0.03588 3.5-4 5-4s3 1 3 1v-0.5s-1.5-1-3-1z" style="fill:#ffffff;opacity:.1"/>
 <path d="m3 13v0.5s0.5 2 1.5 2 2.5-2 4.5-2 4 2 5.5 2 4.5-2 4.5-2v-0.5s-3 2-4.5 2-3.5-2-5.5-2-3.5 2-4.5 2-1.5-2-1.5-2z" style="fill:#ffffff;opacity:.1"/>
 <path d="m2 2c-0.554 0-1 0.446-1 1v0.5c0-0.554 0.446-1 1-1h18c0.554 0 1 0.446 1 1v-0.5c0-0.554-0.446-1-1-1h-18z" style="fill:#ffffff;opacity:.1"/>
</svg>

<svg xmlns="http://www.w3.org/2000/svg" width="22" height="22" version="1">
 <path style="opacity:0.2" d="m 2,2.5 c -0.554,0 -1,0.446 -1,1 l 0,12 0,4 c 0,0.554 0.446,1 1,1 l 18,0 c 0.554,0 1,-0.446 1,-1 l 0,-4 0,-12 c 0,-0.554 -0.446,-1 -1,-1 l -18,0 z"/>
 <path style="fill:#cccccc" d="M 2,2 C 1.446,2 1,2.446 1,3 l 0,12 0,4 c 0,0.554 0.446,1 1,1 l 18,0 c 0.554,0 1,-0.446 1,-1 L 21,15 21,3 C 21,2.446 20.554,2 20,2 L 2,2 Z"/>
 <rect style="fill:#494949" width="16" height="14" x="3" y="4"/>
 <path style="opacity:0.1" d="m 3,10 c 0,0 1.5,-1.5 3.5,-1.5 2,0 2.561716,2.035882 4.5,2 1.938284,-0.03588 3.5,-4 5,-4 1.5,0 3,1 3,1 L 19,18 3,18 Z"/>
 <path style="fill:#4966ff" d="M 16,7 C 14.5,7 12.938284,10.96412 11,11 9.061716,11.035882 8.5,9 6.5,9 4.5,9 3,10.5 3,10.5 L 3,18 19,18 19,8 C 19,8 17.5,7 16,7 Z"/>
 <path style="opacity:0.1" d="m 3,12.5 c 0,0 0.5,2 1.5,2 1,0 2.5,-2 4.5,-2 2,0 4,2 5.5,2 1.5,0 4.5,-2 4.5,-2 L 19,18 3,18 Z"/>
 <path style="fill:#19c171" d="m 3,13 0,5 16,0 0,-5 c 0,0 -3,2 -4.5,2 C 13,15 11,13 9,13 7,13 5.5,15 4.5,15 3.5,15 3,13 3,13 Z"/>
 <path style="opacity:0.1;fill:#ffffff" d="M 16,7 C 14.5,7 12.938284,10.96412 11,11 9.061716,11.03588 8.5,9 6.5,9 4.5,9 3,10.5 3,10.5 L 3,11 c 0,0 1.5,-1.5 3.5,-1.5 2,0 2.561716,2.035882 4.5,2 1.938284,-0.03588 3.5,-4 5,-4 1.5,0 3,1 3,1 L 19,8 C 19,8 17.5,7 16,7 Z"/>
 <path style="opacity:0.1;fill:#ffffff" d="m 3,13 0,0.5 c 0,0 0.5,2 1.5,2 1,0 2.5,-2 4.5,-2 2,0 4,2 5.5,2 1.5,0 4.5,-2 4.5,-2 L 19,13 c 0,0 -3,2 -4.5,2 C 13,15 11,13 9,13 7,13 5.5,15 4.5,15 3.5,15 3,13 3,13 Z"/>
 <path style="opacity:0.1;fill:#ffffff" d="M 2,2 C 1.446,2 1,2.446 1,3 l 0,0.5 c 0,-0.554 0.446,-1 1,-1 l 18,0 c 0.554,0 1,0.446 1,1 L 21,3 C 21,2.446 20.554,2 20,2 L 2,2 Z"/>
</svg>
